svg/crypto/ethereum_line.svg

<?xml version="1.0" encoding="UTF-8"?>
<svg width="24px" height="24px" viewBox="0 0 24 24" version="1.1" xmlns="http://www.w3.org/2000/svg" xmlns:xlink="http://www.w3.org/1999/xlink">
    <title>ethereum_line</title>
    <g id="页面-1" stroke="none" stroke-width="1" fill="none" fill-rule="evenodd">
        <g id="Business" transform="translate(-336.000000, -384.000000)">
            <g id="ethereum_line" transform="translate(336.000000, 384.000000)">
                <path d="M24,0 L24,24 L0,24 L0,0 L24,0 Z M12.5934901,23.257841 L12.5819402,23.2595131 L12.5108777,23.2950439 L12.4918791,23.2987469 L12.4918791,23.2987469 L12.4767152,23.2950439 L12.4056548,23.2595131 C12.3958229,23.2563662 12.3870493,23.2590235 12.3821421,23.2649074 L12.3780323,23.275831 L12.360941,23.7031097 L12.3658947,23.7234994 L12.3769048,23.7357139 L12.4804777,23.8096931 L12.4953491,23.8136134 L12.4953491,23.8136134 L12.5071152,23.8096931 L12.6106902,23.7357139 L12.6232938,23.7196733 L12.6232938,23.7196733 L12.6266527,23.7031097 L12.609561,23.275831 C12.6075724,23.2657013 12.6010112,23.2592993 12.5934901,23.257841 L12.5934901,23.257841 Z M12.8583906,23.1452862 L12.8445485,23.1473072 L12.6598443,23.2396597 L12.6498822,23.2499052 L12.6498822,23.2499052 L12.6471943,23.2611114 L12.6650943,23.6906389 L12.6699349,23.7034178 L12.6699349,23.7034178 L12.678386,23.7104931 L12.8793402,23.8032389 C12.8914285,23.8068999 12.9022333,23.8029875 12.9078286,23.7952264 L12.9118235,23.7811639 L12.8776777,23.1665331 C12.8752882,23.1545897 12.8674102,23.1470016 12.8583906,23.1452862 L12.8583906,23.1452862 Z M12.1430473,23.1473072 C12.1332178,23.1423925 12.1221763,23.1452606 12.1156365,23.1525954 L12.1099173,23.1665331 L12.0757714,23.7811639 C12.0751323,23.7926639 12.0828099,23.8018602 12.0926481,23.8045676 L12.108256,23.8032389 L12.3092106,23.7104931 L12.3186497,23.7024347 L12.3186497,23.7024347 L12.3225043,23.6906389 L12.340401,23.2611114 L12.337245,23.2485176 L12.337245,23.2485176 L12.3277531,23.2396597 L12.1430473,23.1473072 Z" id="MingCute" fill-rule="nonzero"></path>
                <path d="M12,2 C12.3344,2 12.6466,2.1671 12.8321,2.4453 L18.8194,11.4262 C18.8601,11.4844 18.8951,11.5477 18.9233,11.6156 C18.9415,11.6595 18.9565,11.7044 18.9683,11.7499 C19.0428,12.0374 18.9838,12.332 18.8263,12.5633 L12.8321,21.5547 C12.6466,21.8329 12.3344,22 12,22 C11.6657,22 11.3534,21.8329 11.168,21.5547 L5.17371,12.5633 C5.15954,12.5425 5.14618,12.5212 5.13363,12.4994 C5.1021,12.4447 5.07615,12.3878 5.05578,12.3294 C4.99238,12.1481 4.98057,11.9473 5.03176,11.7499 C5.04351,11.7044 5.05852,11.6595 5.0768,11.6156 C5.10498,11.5477 5.13997,11.4844 5.18069,11.4262 L11.168,2.4453 C11.3534,2.1671 11.6657,2 12,2 Z M13,6.30278 L16.4417,11.4653 L13,12.6126 L13,6.30278 Z M11,6.30278 L11,12.6126 L7.55832,11.4653 L11,6.30278 Z M12,19.1972 L8.44877,13.8703 L11.6838,14.9487 C11.8891,15.0171 12.111,15.0171 12.3163,14.9487 L15.5513,13.8703 L12,19.1972 Z" id="形状" fill="#09244B"></path>
            </g>
        </g>
    </g>
</svg>

<svg xmlns="http://www.w3.org/2000/svg" width="24" height="24"><g fill="none" fill-rule="evenodd"><path d="M24 0v24H0V0h24ZM12.593 23.258l-.011.002-.071.035-.02.004-.014-.004-.071-.035c-.01-.004-.019-.001-.024.005l-.004.01-.017.428.005.02.01.013.104.074.015.004.012-.004.104-.074.012-.016.004-.017-.017-.427c-.002-.01-.009-.017-.017-.018Zm.265-.113-.013.002-.185.093-.01.01-.003.011.018.43.005.012.008.007.201.093c.012.004.023 0 .029-.008l.004-.014-.034-.614c-.003-.012-.01-.02-.02-.022Zm-.715.002a.023.023 0 0 0-.027.006l-.006.014-.034.614c0 .012.007.02.017.024l.015-.002.201-.093.01-.008.004-.011.017-.43-.003-.012-.01-.01-.184-.092Z"/><path fill="#09244B" d="M12 2a1 1 0 0 1 .832.445l5.987 8.981a.998.998 0 0 1 .007 1.137l-5.994 8.992a1 1 0 0 1-1.664 0l-5.994-8.992a.997.997 0 0 1-.097-.947.996.996 0 0 1 .104-.19l5.987-8.98A1 1 0 0 1 12 2Zm1 4.303 3.442 5.162L13 12.613v-6.31Zm-2 0v6.31l-3.442-1.148L11 6.303Zm1 12.894L8.449 13.87l3.235 1.079a1 1 0 0 0 .632 0l3.235-1.079L12 19.197Z"/></g></svg>
